X:191
T: De klenge Mnnchen (3-32), S. 82
N: K1166
O: Luxemburg
S: KINTZELE, Guillaume: An der Ucht, Bd. 3 Luxemburg 1928]
R: Spottlied]
M: 2/4
L: 1/16
K: F
C2 | F2G2A2B2 | c2c2c2
c2 | d3df3d | c4z2
c2 | c2B2B2B2 | A2A2A2
A2 | G3GG3G | F4z2

